X:1
T:Lie, ciocarlie
M:3/4
L:1/16
K:Gmaj
 (A8 B2)G2 | E8 B4 | (e8 f2)d2 | e6 fd e2fd | ^c2BG A6 BG | A6 BG F2>E2 | E4 E8 :|$ G2 A6 B2A2- | %8
 A4 B2 (A4 (3G63/64FE) | G2 A6 B2A2- | A4 B2 A4 (3(G63/64FE) | B,6 E2 EEEG | (B2>A2) (A4- AGFE) |$ %13
 B6 E2 EEEE- | E4 E8 | (A8 B2)G2 | E8 B4 | (e8 f2)(d2 | e2)f(d ^c2>)B2 Beeg | (a8 b2)g2 |$ %20
 a2bg (f2>e2) ebbd' | e'4 (e'6 f')d' | e'2f'd' c'2>b2 b2g2 | a8- a2bg |$ f2>e2 B6 ee | %25
 egb2 a6 (3g63/64fe | b6 e2 e2e2 | e2 e6 e4 | %28

